; generated by PrusaSlicer 2.8.1+win64 on 2024-12-05 at 01:09:23 UTC


;
;

;
;

;
;

;
;
; 

; external perimeters extrusion width = 0.45mm
; perimeters extrusion width = 0.45mm
; infill extrusion width = 0.45mm
; solid infill extrusion width = 0.45mm
; top infill extrusion width = 0.40mm
; support material extrusion width = 0.35mm
; first layer extrusion width = 0.42mm

M73 P0 R551
M73 Q0 S551
M201 X2500 Y2500 Z400 E5000 ; sets maximum accelerations, mm/sec^2
M203 X180 Y180 Z12 E80 ; sets maximum feedrates, mm / sec
M204 P2000 R1250 T2500 ; sets acceleration (P, T) and retract acceleration (R), mm/sec^2
M205 X8.00 Y8.00 Z2.00 E10.00 ; sets the jerk limits, mm/sec
M205 S0 T0 ; sets the minimum extruding and travel feed rate, mm/sec

M486 S0
M486 Ahousing.stl
M486 S-1

;TYPE:Custom
M862.3 P "MINI" ; printer model check
G90 ; use absolute coordinates
M83 ; extruder relative mode
M104 S170 ; set extruder temp for bed leveling
M140 S65 ; set bed temp
M109 R170 ; wait for bed leveling temp
M190 S65 ; wait for bed temp
M204 T1250 ; set travel acceleration
G28 ; home all without mesh bed level
G29 ; mesh bed leveling 
M204 T2500 ; restore travel acceleration
M104 S215 ; set extruder temp
G92 E0
G1 Y-2 X179 F2400
G1 Z3 F720
M109 S215 ; wait for extruder temp

; intro line
G1 X170 F1000
G1 Z0.2 F720
G1 X110 E8 F900
G1 X40 E10 F700
M73 P0 R550
M73 Q0 S550
G92 E0

M221 S95 ; set flow
G21 ; set units to millimeters
G90 ; use absolute coordinates
M83 ; use relative distances for extrusion

M900 K0.2 ; Filament gcode LA 1.5
; ; Filament gcode LA 1.0




M107
;LAYER_CHANGE
;Z:0.2
;HEIGHT:0.2
G1 E-3.2 F4200
G1 Z.4 F720
G1 X14.934 Y58.561 F9000
G1 Z.2 F720
G1 E3.2 F2400
M204 P600
;TYPE:Skirt/Brim
;WIDTH:0.42
G1 F600
G1 X16.5 Y58.218 E.05026
G1 X163.5 Y58.218 E4.60908
G1 X164.066 Y58.293 E.0179
G3 X167.346 Y60.84 I-.683 J4.265 E.13583
G1 X167.689 Y62.407 E.0503
G1 X167.689 Y117.536 E1.72853
G3 X166.794 Y120.088 I-5.544 J-.511 E.08565
G3 X163.626 Y121.759 I-3.589 J-2.967 E.11527
G1 X100.065 Y125.41 E1.9962
G1 X80.06 Y125.414 E.62724
G1 X16.374 Y121.759 E2.00012
G3 X13.21 Y120.092 I.42 J-4.634 E.11509
G3 X12.313 Y117.541 I4.658 J-3.071 E.08564
G1 X12.311 Y62.407 E1.72869
G3 X13.22 Y59.859 I5.462 J.513 E.08571
G3 X14.879 Y58.586 I3.823 J3.264 E.06605
M204 P1000
G1 E-2.24 F4200
;WIPE_START
G1 F7200
G1 X14.934 Y58.561 E-.03348
G1 X16.5 Y58.218 E-.8884
G1 X16.569 Y58.218 E-.03812
;WIPE_END
G1 Z.4 F720
M486 S0
G1 X99.94 Y123.225 F9000
G1 Z.2 F720
G1 E3.2 F2400
M204 P600
;TYPE:Support material
G1 F600
G1 X80.06 Y123.225 E.62332
G1 X80.06 Y120.054 E.09942
G1 X99.94 Y120.054 E.62332
G1 X99.94 Y123.169 E.09767
M204 P1000
G1 X99.94 Y123.169 F9000
G1 X99.217 Y123.056
M204 P600
G1 F600
G1 X99.217 Y120.393 E.0835
G1 X98.799 Y120.393 E.01311
G1 X98.799 Y122.886 E.07817
G1 X98.38 Y122.886 E.01314
G1 X98.38 Y120.393 E.07817
G1 X97.961 Y120.393 E.01314
G1 X97.961 Y122.886 E.07817
G1 X97.542 Y122.886 E.01314
G1 X97.542 Y120.393 E.07817
M73 P0 R549
M73 Q0 S549
G1 X97.123 Y120.393 E.01314
G1 X97.123 Y122.886 E.07817
G1 X96.704 Y122.886 E.01314
G1 X96.704 Y120.393 E.07817
G1 X96.285 Y120.393 E.01314
G1 X96.285 Y122.886 E.07817
G1 X95.866 Y122.886 E.01314
G1 X95.866 Y120.393 E.07817
G1 X95.447 Y120.393 E.01314
G1 X95.447 Y122.886 E.07817
G1 X95.028 Y122.886 E.01314
G1 X95.028 Y120.393 E.07817
G1 X94.609 Y120.393 E.01314
G1 X94.609 Y122.886 E.07817
G1 X94.19 Y122.886 E.01314
G1 X94.19 Y120.393 E.07817
G1 X93.771 Y120.393 E.01314
G1 X93.771 Y122.886 E.07817
G1 X93.352 Y122.886 E.01314
G1 X93.352 Y120.393 E.07817
G1 X92.933 Y120.393 E.01314
G1 X92.933 Y122.886 E.07817
G1 X92.514 Y122.886 E.01314
G1 X92.514 Y120.393 E.07817
G1 X92.095 Y120.393 E.01314
G1 X92.095 Y122.886 E.07817
G1 X91.676 Y122.886 E.01314
G1 X91.676 Y120.393 E.07817
G1 X91.257 Y120.393 E.01314
G1 X91.257 Y122.886 E.07817
G1 X90.838 Y122.886 E.01314
G1 X90.838 Y120.393 E.07817
G1 X90.419 Y120.393 E.01314
G1 X90.419 Y122.886 E.07817
G1 X90 Y122.886 E.01314
G1 X90 Y120.393 E.07817
G1 X89.581 Y120.393 E.01314
G1 X89.581 Y122.886 E.07817
G1 X89.162 Y122.886 E.01314
G1 X89.162 Y120.393 E.07817
G1 X88.743 Y120.393 E.01314
G1 X88.743 Y122.886 E.07817
G1 X88.324 Y122.886 E.01314
G1 X88.324 Y120.393 E.07817
G1 X87.905 Y120.393 E.01314
G1 X87.905 Y122.886 E.07817
G1 X87.486 Y122.886 E.01314
G1 X87.486 Y120.393 E.07817
G1 X87.067 Y120.393 E.01314
G1 X87.067 Y122.886 E.07817
G1 X86.648 Y122.886 E.01314
G1 X86.648 Y120.393 E.07817
G1 X86.229 Y120.393 E.01314
G1 X86.229 Y122.886 E.07817
G1 X85.81 Y122.886 E.01314
G1 X85.81 Y120.393 E.07817
G1 X85.391 Y120.393 E.01314
G1 X85.391 Y122.886 E.07817
G1 X84.972 Y122.886 E.01314
G1 X84.972 Y120.393 E.07817
G1 X84.553 Y120.393 E.01314
G1 X84.553 Y122.886 E.07817
G1 X84.134 Y122.886 E.01314
G1 X84.134 Y120.393 E.07817
G1 X83.715 Y120.393 E.01314
G1 X83.715 Y122.886 E.07817
G1 X83.296 Y122.886 E.01314
G1 X83.296 Y120.393 E.07817
G1 X82.877 Y120.393 E.01314
G1 X82.877 Y122.886 E.07817
G1 X82.458 Y122.886 E.01314
G1 X82.458 Y120.393 E.07817
G1 X82.039 Y120.393 E.01314
G1 X82.039 Y122.886 E.07817
G1 X81.62 Y122.886 E.01314
G1 X81.62 Y120.393 E.07817
G1 X81.201 Y120.393 E.01314
G1 X81.201 Y122.886 E.07817
G1 X80.783 Y122.886 E.01311
G1 X80.783 Y120.223 E.0835
M204 P1000
G1 E-2.24 F4200
;WIPE_START
G1 F7200
G1 X80.783 Y121.955 E-.96
;WIPE_END
G1 Z.4 F720
G1 X16.103 Y61.719 F9000
G1 Z.2 F720
G1 E3.2 F2400
M204 P600
;TYPE:Perimeter
;WIDTH:0.419999
G1 F600
G1 X16.653 Y61.571 E.01786
G1 X163.347 Y61.571 E4.59948
G1 X163.897 Y61.719 E.01786
G1 X164.188 Y62.009 E.01288
G3 X164.336 Y62.71 I-3.228 J1.046 E.02251
G1 X164.336 Y117.386 E1.71432
G1 X164.185 Y117.96 E.01861
G1 X163.89 Y118.261 E.01321
G1 X163.344 Y118.41 E.01775
G1 X16.656 Y118.41 E4.59929
G1 X16.11 Y118.261 E.01775
G1 X15.815 Y117.96 E.01321
G1 X15.664 Y117.386 E.01861
G1 X15.664 Y62.56 E1.71903
G1 X15.812 Y62.009 E.01789
G1 X16.06 Y61.761 E.011
M204 P1000
G1 X16.06 Y61.761 F9000
G1 X15.907 Y61.38
M204 P600
G1 F600
G1 X16.604 Y61.194 E.02262
G1 X163.396 Y61.194 E4.60255
G1 X164.093 Y61.38 E.02262
M73 P0 R548
M73 Q0 S548
G1 X164.526 Y61.814 E.01922
G1 X164.713 Y62.51 E.0226
G1 X164.713 Y62.71 E.00627
G1 X164.713 Y117.435 E1.71586
G1 X164.524 Y118.153 E.02328
G1 X164.087 Y118.598 E.01956
G1 X163.395 Y118.787 E.02249
G1 X16.605 Y118.787 E4.60249
G1 X15.913 Y118.598 E.02249
G1 X15.476 Y118.153 E.01956
G1 X15.287 Y117.435 E.02328
G1 X15.287 Y62.51 E1.72213
G1 X15.474 Y61.814 E.0226
G1 X15.865 Y61.423 E.01734
M204 P1000
G1 X15.865 Y61.423 F9000
G1 X15.712 Y61.042
M204 P600
;TYPE:External perimeter
G1 F600
G1 X16.554 Y60.817 E.02733
G1 X163.446 Y60.817 E4.60569
G1 X164.288 Y61.042 E.02733
G1 X164.864 Y61.619 E.02556
G1 X165.09 Y62.461 E.02733
G1 X165.09 Y62.71 E.00781
G1 X165.09 Y117.483 E1.71737
G1 X164.863 Y118.345 E.02795
G1 X164.285 Y118.934 E.02587
G1 X163.445 Y119.164 E.02731
G1 X16.555 Y119.164 E4.60563
G1 X15.715 Y118.934 E.02731
M73 P0 R547
M73 Q0 S547
G1 X15.137 Y118.345 E.02587
G1 X14.91 Y117.483 E.02795
G1 X14.91 Y62.461 E1.72517
G1 X15.136 Y61.619 E.02733
G1 X15.67 Y61.085 E.02368
M204 P1000
G1 E-2.24 F4200
;WIPE_START
G1 F7200
G1 X15.712 Y61.042 E-.03331
G1 X16.554 Y60.817 E-.48298
G1 X17.355 Y60.817 E-.44371
;WIPE_END
G1 Z.4 F720
G1 X163.481 Y61.783 F9000
G1 Z.2 F720
G1 E3.2 F2400
M204 P600
;TYPE:Solid infill
;WIDTH:0.420355
G1 F600
G1 X163.884 Y62.186 E.01789
G3 X163.996 Y62.832 I-1.532 J.599 E.02072
G1 X163.075 Y61.91 E.0409
G1 X162.541 Y61.91 E.01676
G1 X163.996 Y63.365 E.06458
G1 X163.996 Y63.899 E.01676
G1 X162.008 Y61.91 E.08826
G1 X161.474 Y61.91 E.01676
G1 X163.996 Y64.433 E.11196
G1 X163.996 Y64.967 E.01676
G1 X160.94 Y61.91 E.13566
G1 X160.406 Y61.91 E.01676
G1 X163.996 Y65.501 E.15936
G1 X163.996 Y66.034 E.01673
G1 X159.873 Y61.91 E.18302
G1 X159.339 Y61.91 E.01676
G1 X163.996 Y66.568 E.20672
G1 X163.996 Y67.102 E.01676
G1 X158.805 Y61.91 E.23042
G1 X158.271 Y61.91 E.01676
G1 X163.996 Y67.636 E.25412
G1 X163.996 Y68.169 E.01673
G1 X157.737 Y61.91 E.2778
G1 X157.204 Y61.91 E.01673
G1 X163.996 Y68.703 E.30147
G1 X163.996 Y69.237 E.01676
G1 X156.67 Y61.91 E.32518
G1 X156.136 Y61.91 E.01676
G1 X163.996 Y69.771 E.34888
G1 X163.996 Y70.305 E.01676
G1 X155.602 Y61.91 E.37258
G1 X155.069 Y61.91 E.01673
G1 X163.996 Y70.838 E.39623
G1 X163.996 Y71.372 E.01676
G1 X154.535 Y61.91 E.41993
G1 X154.001 Y61.91 E.01676
G1 X163.996 Y71.906 E.44363
G1 X163.996 Y72.44 E.01676
G1 X153.467 Y61.91 E.46734
G1 X152.933 Y61.91 E.01676
G1 X163.996 Y72.973 E.49101
G1 X163.996 Y73.507 E.01676
G1 X152.4 Y61.91 E.51469
G1 X151.866 Y61.91 E.01676
G1 X163.996 Y74.041 E.53839
G1 X163.996 Y74.575 E.01676
G1 X151.332 Y61.91 E.56209
G1 X150.798 Y61.91 E.01676
G1 X163.996 Y75.108 E.58577
G1 X163.996 Y75.642 E.01676
G1 X150.265 Y61.91 E.60945
G1 X149.731 Y61.91 E.01676
G1 X163.996 Y76.176 E.63315
G1 X163.996 Y76.71 E.01676
G1 X149.197 Y61.91 E.65685
G1 X148.663 Y61.91 E.01676
G1 X163.996 Y77.244 E.68055
G1 X163.996 Y77.777 E.01673
G1 X148.13 Y61.91 E.70421
G1 X147.596 Y61.91 E.01676
G1 X163.996 Y78.311 E.72791
G1 X163.996 Y78.845 E.01676
G1 X147.062 Y61.91 E.75161
G1 X146.528 Y61.91 E.01676
G1 X163.996 Y79.379 E.77531
G1 X163.996 Y79.912 E.01673
M73 P0 R546
M73 Q0 S546
G1 X145.994 Y61.91 E.79899
G1 X145.461 Y61.91 E.01673
G1 X163.996 Y80.446 E.82267
G1 X163.996 Y80.98 E.01676
G1 X144.927 Y61.91 E.84637
G1 X144.393 Y61.91 E.01676
G1 X163.996 Y81.514 E.87007
G1 X163.996 Y82.048 E.01676
G1 X143.859 Y61.91 E.89377
G1 X143.326 Y61.91 E.01673
G1 X163.996 Y82.581 E.91743
G1 X163.996 Y83.115 E.01676
G1 X142.792 Y61.91 E.94113
G1 X142.258 Y61.91 E.01676
G1 X163.996 Y83.649 E.96483
G1 X163.996 Y84.183 E.01676
G1 X141.724 Y61.91 E.98853
G1 X141.19 Y61.91 E.01676
G1 X163.996 Y84.716 E1.01221
G1 X163.996 Y85.25 E.01676
G1 X140.657 Y61.91 E1.03589
G1 X140.123 Y61.91 E.01676
G1 X163.996 Y85.784 E1.05959
G1 X163.996 Y86.318 E.01676
G1 X139.589 Y61.91 E1.08329
G1 X139.055 Y61.91 E.01676
G1 X163.996 Y86.851 E1.10697
G1 X163.996 Y87.385 E.01676
G1 X138.522 Y61.91 E1.13065
G1 X137.988 Y61.91 E.01676
G1 X163.996 Y87.919 E1.15435
G1 X163.996 Y88.453 E.01676
G1 X137.454 Y61.91 E1.17805
G1 X136.92 Y61.91 E.01676
G1 X163.996 Y88.987 E1.20175
G1 X163.996 Y89.52 E.01673
G1 X136.386 Y61.91 E1.22543
G1 X135.853 Y61.91 E.01673
M73 P0 R545
M73 Q0 S545
G1 X163.996 Y90.054 E1.24911
G1 X163.996 Y90.588 E.01676
G1 X135.319 Y61.91 E1.27281
G1 X134.785 Y61.91 E.01676
G1 X163.996 Y91.122 E1.29651
G1 X163.996 Y91.655 E.01673
G1 X134.251 Y61.91 E1.32019
G1 X133.718 Y61.91 E.01673
G1 X163.996 Y92.189 E1.34386
G1 X163.996 Y92.723 E.01676
G1 X133.184 Y61.91 E1.36757
G1 X132.65 Y61.91 E.01676
M73 P1 R545
M73 Q1 S545
G1 X163.996 Y93.257 E1.39127
G1 X163.996 Y93.791 E.01676
G1 X132.116 Y61.91 E1.41497
G1 X131.583 Y61.91 E.01673
G1 X163.996 Y94.324 E1.43862
G1 X163.996 Y94.858 E.01676
G1 X131.049 Y61.91 E1.46232
G1 X130.515 Y61.91 E.01676
G1 X163.996 Y95.392 E1.48602
G1 X163.996 Y95.926 E.01676
G1 X129.981 Y61.91 E1.50973
G1 X129.447 Y61.91 E.01676
G1 X163.996 Y96.459 E1.5334
G1 X163.996 Y96.993 E.01676
M73 P1 R544
M73 Q1 S544
G1 X128.914 Y61.91 E1.55708
G1 X128.38 Y61.91 E.01676
G1 X163.996 Y97.527 E1.58078
G1 X163.996 Y98.061 E.01676
G1 X127.846 Y61.91 E1.60448
G1 X127.312 Y61.91 E.01676
G1 X163.996 Y98.595 E1.62819
G1 X163.996 Y99.128 E.01673
G1 X126.779 Y61.91 E1.65184
G1 X126.245 Y61.91 E.01676
G1 X163.996 Y99.662 E1.67554
G1 X163.996 Y100.196 E.01676
G1 X125.711 Y61.91 E1.69924
G1 X125.177 Y61.91 E.01676
G1 X163.996 Y100.73 E1.72294
G1 X163.996 Y101.263 E.01673
G1 X124.643 Y61.91 E1.74662
G1 X124.11 Y61.91 E.01673
G1 X163.996 Y101.797 E1.7703
G1 X163.996 Y102.331 E.01676
G1 X123.576 Y61.91 E1.794
G1 X123.042 Y61.91 E.01676
M73 P1 R543
M73 Q1 S543
G1 X163.996 Y102.865 E1.8177
G1 X163.996 Y103.398 E.01673
G1 X122.508 Y61.91 E1.84138
G1 X121.975 Y61.91 E.01673
G1 X163.996 Y103.932 E1.86506
G1 X163.996 Y104.466 E.01676
G1 X121.441 Y61.91 E1.88876
G1 X120.907 Y61.91 E.01676
G1 X163.996 Y105 E1.91246
G1 X163.996 Y105.534 E.01676
G1 X120.373 Y61.91 E1.93616
G1 X119.84 Y61.91 E.01673
G1 X163.996 Y106.067 E1.95982
G1 X163.996 Y106.601 E.01676
G1 X119.306 Y61.91 E1.98352
G1 X118.772 Y61.91 E.01676
G1 X163.996 Y107.135 E2.00722
G1 X163.996 Y107.669 E.01676
G1 X118.238 Y61.91 E2.03092
G1 X117.704 Y61.91 E.01676
M73 P1 R542
M73 Q1 S542
G1 X163.996 Y108.202 E2.0546
G1 X163.996 Y108.736 E.01676
G1 X117.171 Y61.91 E2.07828
G1 X116.637 Y61.91 E.01676
G1 X163.996 Y109.27 E2.10198
G1 X163.996 Y109.804 E.01676
G1 X116.103 Y61.91 E2.12568
G1 X115.569 Y61.91 E.01676
G1 X163.996 Y110.338 E2.14938
G1 X163.996 Y110.871 E.01673
G1 X115.036 Y61.91 E2.17304
G1 X114.502 Y61.91 E.01676
G1 X163.996 Y111.405 E2.19674
G1 X163.996 Y111.939 E.01676
G1 X113.968 Y61.91 E2.22044
G1 X113.434 Y61.91 E.01676
G1 X163.996 Y112.473 E2.24414
G1 X163.996 Y113.006 E.01673
M73 P1 R541
M73 Q1 S541
G1 X112.9 Y61.91 E2.26782
G1 X112.367 Y61.91 E.01673
G1 X163.996 Y113.54 E2.2915
G1 X163.996 Y114.074 E.01676
G1 X111.833 Y61.91 E2.3152
G1 X111.299 Y61.91 E.01676
G1 X163.996 Y114.608 E2.3389
G1 X163.996 Y115.141 E.01673
G1 X110.765 Y61.91 E2.36258
G1 X110.232 Y61.91 E.01673
G1 X163.996 Y115.675 E2.38625
G1 X163.996 Y116.209 E.01676
G1 X109.698 Y61.91 E2.40996
G1 X109.164 Y61.91 E.01676
G1 X163.996 Y116.743 E2.43366
G1 X163.996 Y117.277 E.01676
M73 P1 R540
M73 Q1 S540
G1 X108.63 Y61.91 E2.45736
G1 X108.096 Y61.91 E.01676
G1 X163.899 Y117.713 E2.47673
G3 X163.632 Y117.979 I-.361 J-.095 E.0124
G1 X107.563 Y61.91 E2.48854
G1 X107.029 Y61.91 E.01676
G1 X163.189 Y118.07 E2.49258
G1 X162.655 Y118.07 E.01676
G1 X106.495 Y61.91 E2.49258
G1 X105.961 Y61.91 E.01676
G1 X162.121 Y118.07 E2.49258
G1 X161.587 Y118.07 E.01676
G1 X105.428 Y61.91 E2.49255
G1 X104.894 Y61.91 E.01676
M73 P2 R539
M73 Q2 S539
G1 X161.054 Y118.07 E2.49258
G1 X160.52 Y118.07 E.01676
G1 X104.36 Y61.91 E2.49258
G1 X103.826 Y61.91 E.01676
G1 X159.986 Y118.07 E2.49258
G1 X159.452 Y118.07 E.01676
G1 X103.293 Y61.91 E2.49255
G1 X102.759 Y61.91 E.01676
G1 X158.919 Y118.07 E2.49258
G1 X158.385 Y118.07 E.01676
G1 X102.225 Y61.91 E2.49258
G1 X101.691 Y61.91 E.01676
G1 X157.851 Y118.07 E2.49258
G1 X157.317 Y118.07 E.01676
G1 X101.157 Y61.91 E2.49258
G1 X100.624 Y61.91 E.01673
M73 P2 R538
M73 Q2 S538
G1 X156.783 Y118.07 E2.49255
G1 X156.25 Y118.07 E.01673
G1 X100.09 Y61.91 E2.49258
G1 X99.556 Y61.91 E.01676
G1 X155.716 Y118.07 E2.49258
G1 X155.182 Y118.07 E.01676
G1 X99.022 Y61.91 E2.49258
G1 X98.489 Y61.91 E.01673
G1 X154.648 Y118.07 E2.49255
G1 X154.115 Y118.07 E.01673
G1 X97.955 Y61.91 E2.49258
G1 X97.421 Y61.91 E.01676
G1 X153.581 Y118.07 E2.49258
G1 X153.047 Y118.07 E.01676
M73 P2 R537
M73 Q2 S537
G1 X96.887 Y61.91 E2.49258
G1 X96.353 Y61.91 E.01676
G1 X152.513 Y118.07 E2.49258
G1 X151.98 Y118.07 E.01673
G1 X95.82 Y61.91 E2.49258
G1 X95.286 Y61.91 E.01676
G1 X151.446 Y118.07 E2.49258
G1 X150.912 Y118.07 E.01676
G1 X94.752 Y61.91 E2.49258
G1 X94.218 Y61.91 E.01676
G1 X150.378 Y118.07 E2.49258
G1 X149.844 Y118.07 E.01676
G1 X93.685 Y61.91 E2.49255
G1 X93.151 Y61.91 E.01676
G1 X149.311 Y118.07 E2.49258
G1 X148.777 Y118.07 E.01676
M73 P2 R536
M73 Q2 S536
G1 X92.617 Y61.91 E2.49258
G1 X92.083 Y61.91 E.01676
G1 X148.243 Y118.07 E2.49258
G1 X147.709 Y118.07 E.01676
G1 X91.55 Y61.91 E2.49255
G1 X91.016 Y61.91 E.01676
G1 X147.176 Y118.07 E2.49258
G1 X146.642 Y118.07 E.01676
G1 X90.482 Y61.91 E2.49258
G1 X89.948 Y61.91 E.01676
G1 X146.108 Y118.07 E2.49258
G1 X145.574 Y118.07 E.01676
G1 X89.414 Y61.91 E2.49258
G1 X88.881 Y61.91 E.01673
M73 P2 R535
M73 Q2 S535
G1 X145.04 Y118.07 E2.49255
G1 X144.507 Y118.07 E.01673
G1 X88.347 Y61.91 E2.49258
G1 X87.813 Y61.91 E.01676
G1 X143.973 Y118.07 E2.49258
G1 X143.439 Y118.07 E.01676
G1 X87.279 Y61.91 E2.49258
G1 X86.746 Y61.91 E.01673
G1 X142.905 Y118.07 E2.49255
G1 X142.372 Y118.07 E.01673
G1 X86.212 Y61.91 E2.49258
G1 X85.678 Y61.91 E.01676
G1 X141.838 Y118.07 E2.49258
G1 X141.304 Y118.07 E.01676
G1 X85.144 Y61.91 E2.49258
G1 X84.61 Y61.91 E.01676
M73 P2 R534
M73 Q2 S534
G1 X140.77 Y118.07 E2.49258
G1 X140.236 Y118.07 E.01676
G1 X84.077 Y61.91 E2.49255
G1 X83.543 Y61.91 E.01676
G1 X139.703 Y118.07 E2.49258
